X: 5
T: Martin Rochford's
R: reel
M: 4/4
L: 1/8
K: Gmaj
|: G2 DE GABd | dBAc Beed | GEDE GAeB |1 dBAc BEEF :|2 dBAc BEEf || g2 ag fedA | Beed Beef | g2 bg fedB | dBAc BEEf || g2 ag fedA | Beed eeef | gbbg faaf | dBAc BEEF |


Tune 1062	Setting 14291

